common/resources/fonts/svg/stories-menu.svg

<?xml version="1.0" encoding="UTF-8" standalone="no"?>
<svg width="1024px" height="1024px" viewBox="0 0 1024 1024" version="1.1" xmlns="http://www.w3.org/2000/svg" xmlns:xlink="http://www.w3.org/1999/xlink">
    <!-- Generator: Sketch 3.7.1 (28215) - http://www.bohemiancoding.com/sketch -->
    <title>stories-menu</title>
    <desc>Created with Sketch.</desc>
    <defs></defs>
    <g id="Page-1" stroke="none" stroke-width="1" fill="none" fill-rule="evenodd">
        <g id="stories-menu" fill="#000000">
            <path d="M303.773633,478.746367 L720.227266,478.746367 L720.227266,520.452734 L303.773633,520.452734 L303.773633,478.746367 L303.773633,478.746367 Z M303.773633,562.16 L720.227266,562.16 L720.227266,603.866367 L303.773633,603.866367 L303.773633,562.16 L303.773633,562.16 Z M303.773633,395.64 L512,395.64 L512,437.346367 L303.773633,437.346367 L303.773633,395.64 L303.773633,395.64 Z M303.773633,312.226367 L512,312.226367 L512,353.932734 L303.773633,353.932734 L303.773633,312.226367 L303.773633,312.226367 Z M303.773633,228.813633 L512,228.813633 L512,270.52 L303.773633,270.52 L303.773633,228.813633 L303.773633,228.813633 Z M178.653633,104 L178.653633,770.386367 L845.04,770.386367 L845.04,104 L178.653633,104 L178.653633,104 Z M803.64,728.986367 L220.36,728.986367 L220.36,145.706367 L803.333633,145.706367 L803.64,728.986367 L803.64,728.986367 Z M553.706367,228.813633 L720.226367,228.813633 L720.226367,437.04 L553.706367,437.04 L553.706367,228.813633 L553.706367,228.813633 Z M263.293633,1004.06637 L205.64,853.186367 L204.72,853.186367 C205.946367,865.146367 206.253633,879.252734 206.253633,895.812734 L206.253633,1004.06637 L187.853633,1004.06637 L187.853633,833.866367 L217.6,833.866367 L271.573633,974.32 L272.493633,974.32 L326.773633,833.866367 L356.213633,833.866367 L356.213633,1004.06637 L336.28,1004.06637 L336.28,894.28 C336.28,881.706367 336.893633,867.906367 337.813633,853.186367 L336.893633,853.186367 L278.627266,1003.76 L263.293633,1003.76 L263.293633,1004.06637 Z M498.2,1004.06637 L403.133633,1004.06637 L403.133633,833.866367 L498.2,833.866367 L498.2,851.346367 L423.066367,851.346367 L423.066367,906.24 L493.6,906.24 L493.6,923.72 L423.066367,923.72 L423.066367,986.28 L498.2,986.28 L498.2,1004.06637 L498.2,1004.06637 Z M669.013633,1004.06637 L646.32,1004.06637 L553.093633,861.16 L552.173633,861.16 C553.4,878.026367 554.013633,893.36 554.013633,907.16 L554.013633,1004.06637 L535.613633,1004.06637 L535.613633,833.866367 L558,833.866367 L650.92,976.16 L651.84,976.16 C651.533633,974.013633 651.226367,967.266367 650.92,955.92 C650.306367,944.573633 650.306367,936.293633 650.306367,931.386367 L650.306367,833.866367 L668.706367,833.866367 L668.706367,1004.06637 L669.013633,1004.06637 Z M844.426367,833.866367 L844.426367,943.96 C844.426367,963.28 838.6,978.613633 826.946367,989.653633 C815.292734,1000.69363 799.04,1006.21363 778.492734,1006.21363 C757.945469,1006.21363 741.999102,1000.69363 730.959102,989.347266 C719.612734,978.307266 714.092734,962.667266 714.092734,943.347266 L714.092734,833.867266 L734.026367,833.867266 L734.026367,944.880898 C734.026367,958.987266 738.012734,970.027266 745.68,977.694531 C753.347266,985.361797 765,989.040898 780.026367,989.040898 C794.44,989.040898 805.48,985.360898 813.146367,977.694531 C820.812734,970.028164 824.8,958.988164 824.8,944.880898 L824.8,833.867266 L844.426367,833.867266 L844.426367,833.866367 Z" id="Shape"></path>
        </g>
    </g>
</svg>

<svg width="1024" height="1024" viewBox="0 0 1024 1024">
    <path d="M303.774 478.746h416.453v41.707H303.774v-41.707zm0 83.414h416.453v41.706H303.774V562.16zm0-166.52H512v41.706H303.774V395.64zm0-83.414H512v41.707H303.774v-41.707zm0-83.412H512v41.706H303.774v-41.706zM178.654 104v666.386H845.04V104H178.654zM803.64 728.986H220.36v-583.28h582.974l.306 583.28zM553.706 228.814h166.52V437.04h-166.52V228.814zm-290.412 775.252l-57.654-150.88h-.92c1.226 11.96 1.534 26.067 1.534 42.627v108.253h-18.4v-170.2H217.6l53.974 140.454h.92l54.28-140.454h29.44v170.2H336.28V894.28c0-12.574.614-26.374 1.534-41.094h-.92l-58.267 150.574h-15.333v.306zm234.906 0h-95.066v-170.2H498.2v17.48h-75.134v54.894H493.6v17.48h-70.534v62.56H498.2v17.786zm170.814 0H646.32L553.094 861.16h-.92c1.226 16.866 1.84 32.2 1.84 46v96.906h-18.4v-170.2H558l92.92 142.294h.92c-.306-2.146-.614-8.894-.92-20.24-.614-11.346-.614-19.626-.614-24.534v-97.52h18.4v170.2h.308zm175.412-170.2V943.96c0 19.32-5.826 34.654-17.48 45.694-11.653 11.04-27.906 16.56-48.453 16.56-20.548 0-36.494-5.52-47.534-16.867-11.346-11.04-16.866-26.68-16.866-46v-109.48h19.933v111.014c0 14.106 3.987 25.146 11.654 32.814 7.667 7.667 19.32 11.346 34.346 11.346 14.414 0 25.454-3.68 33.12-11.346 7.667-7.667 11.654-18.707 11.654-32.814V833.867h19.626z" fill-rule="evenodd"/>
</svg>
